svg/building/building_3_fill.svg

<?xml version="1.0" encoding="UTF-8"?>
<svg width="24px" height="24px" viewBox="0 0 24 24" version="1.1" xmlns="http://www.w3.org/2000/svg" xmlns:xlink="http://www.w3.org/1999/xlink">
    <title>building_3_fill</title>
    <g id="页面-1" stroke="none" stroke-width="1" fill="none" fill-rule="evenodd">
        <g id="Building" transform="translate(-336.000000, -48.000000)">
            <g id="building_3_fill" transform="translate(336.000000, 48.000000)">
                 <path d="M24,0 L24,24 L0,24 L0,0 L24,0 Z M12.5934901,23.257841 L12.5819402,23.2595131 L12.5108777,23.2950439 L12.4918791,23.2987469 L12.4918791,23.2987469 L12.4767152,23.2950439 L12.4056548,23.2595131 C12.3958229,23.2563662 12.3870493,23.2590235 12.3821421,23.2649074 L12.3780323,23.275831 L12.360941,23.7031097 L12.3658947,23.7234994 L12.3769048,23.7357139 L12.4804777,23.8096931 L12.4953491,23.8136134 L12.4953491,23.8136134 L12.5071152,23.8096931 L12.6106902,23.7357139 L12.6232938,23.7196733 L12.6232938,23.7196733 L12.6266527,23.7031097 L12.609561,23.275831 C12.6075724,23.2657013 12.6010112,23.2592993 12.5934901,23.257841 L12.5934901,23.257841 Z M12.8583906,23.1452862 L12.8445485,23.1473072 L12.6598443,23.2396597 L12.6498822,23.2499052 L12.6498822,23.2499052 L12.6471943,23.2611114 L12.6650943,23.6906389 L12.6699349,23.7034178 L12.6699349,23.7034178 L12.678386,23.7104931 L12.8793402,23.8032389 C12.8914285,23.8068999 12.9022333,23.8029875 12.9078286,23.7952264 L12.9118235,23.7811639 L12.8776777,23.1665331 C12.8752882,23.1545897 12.8674102,23.1470016 12.8583906,23.1452862 L12.8583906,23.1452862 Z M12.1430473,23.1473072 C12.1332178,23.1423925 12.1221763,23.1452606 12.1156365,23.1525954 L12.1099173,23.1665331 L12.0757714,23.7811639 C12.0751323,23.7926639 12.0828099,23.8018602 12.0926481,23.8045676 L12.108256,23.8032389 L12.3092106,23.7104931 L12.3186497,23.7024347 L12.3186497,23.7024347 L12.3225043,23.6906389 L12.340401,23.2611114 L12.337245,23.2485176 L12.337245,23.2485176 L12.3277531,23.2396597 L12.1430473,23.1473072 Z" id="MingCute" fill-rule="nonzero"></path>
                <path d="M17,2 C18.1046,2 19,2.89543 19,4 L19,20 C19.5523,20 20,20.4477 20,21 C20,21.5523 19.5523,22 19,22 L5,22 C4.44772,22 4,21.5523 4,21 C4,20.4477 4.44772,20 5,20 L5,4 C5,2.89543 5.89543,2 7,2 L17,2 Z M13,13 L11,13 C10.4477,13 10,13.4477 10,14 L10,20 L14,20 L14,14 C14,13.4477 13.5523,13 13,13 Z M10,9 C9.44772,9 9,9.44772 9,10 C9,10.5523 9.44772,11 10,11 C10.5523,11 11,10.5523 11,10 C11,9.44772 10.5523,9 10,9 Z M14,9 C13.4477,9 13,9.44772 13,10 C13,10.5523 13.4477,11 14,11 C14.5523,11 15,10.5523 15,10 C15,9.44772 14.5523,9 14,9 Z M10,6 C9.44772,6 9,6.44772 9,7 C9,7.55228 9.44772,8 10,8 C10.5523,8 11,7.55228 11,7 C11,6.44772 10.5523,6 10,6 Z M14,6 C13.4477,6 13,6.44772 13,7 C13,7.55228 13.4477,8 14,8 C14.5523,8 15,7.55228 15,7 C15,6.44772 14.5523,6 14,6 Z" id="形状" fill="#09244B"></path>
            </g>
        </g>
    </g>
</svg>

<svg xmlns="http://www.w3.org/2000/svg" width="24" height="24"><g fill="none" fill-rule="evenodd"><path d="M24 0v24H0V0h24ZM12.593 23.258l-.011.002-.071.035-.02.004-.014-.004-.071-.035c-.01-.004-.019-.001-.024.005l-.004.01-.017.428.005.02.01.013.104.074.015.004.012-.004.104-.074.012-.016.004-.017-.017-.427c-.002-.01-.009-.017-.017-.018Zm.265-.113-.013.002-.185.093-.01.01-.003.011.018.43.005.012.008.007.201.093c.012.004.023 0 .029-.008l.004-.014-.034-.614c-.003-.012-.01-.02-.02-.022Zm-.715.002a.023.023 0 0 0-.027.006l-.006.014-.034.614c0 .012.007.02.017.024l.015-.002.201-.093.01-.008.004-.011.017-.43-.003-.012-.01-.01-.184-.092Z"/><path fill="#09244B" d="M17 2a2 2 0 0 1 2 2v16a1 1 0 1 1 0 2H5a1 1 0 1 1 0-2V4a2 2 0 0 1 2-2h10Zm-4 11h-2a1 1 0 0 0-1 1v6h4v-6a1 1 0 0 0-1-1Zm-3-4a1 1 0 1 0 0 2 1 1 0 0 0 0-2Zm4 0a1 1 0 1 0 0 2 1 1 0 0 0 0-2Zm-4-3a1 1 0 1 0 0 2 1 1 0 0 0 0-2Zm4 0a1 1 0 1 0 0 2 1 1 0 0 0 0-2Z"/></g></svg>
